docs/img/error.svg

<svg width="30" height="43" viewBox="0 0 30 43" fill="none" xmlns="http://www.w3.org/2000/svg">
<path d="M1.24177 1.03395C1.47339 1.24938 1.59143 1.59464 1.93664 1.68025C6.08056 2.70787 9.65488 2.42556 13.6953 3.15598C16.1666 3.60275 18.7924 3.8471 21.2838 4.983C27.4431 7.79125 22.0479 10.7928 21.2533 11.2694C17.0451 13.7932 10.2041 15.434 3.61773 16.1059C-0.507591 16.5268 11.1504 14.5952 15.0749 13.9827C16.4536 13.7675 17.8409 13.5588 19.2879 13.4088C19.9285 13.3424 20.5217 13.1558 21.3287 13.3345C21.7199 13.4211 21.0671 13.6602 20.8223 13.7484C17.3647 14.994 12.8593 15.5527 8.76282 16.2565C6.67597 16.615 0.132038 17.3291 2.70564 17.5112C12.9005 18.2328 0.239011 16.6043 15.2543 17.9856C17.548 18.1966 19.8698 18.1434 22.3732 19.0233C23.4396 19.3982 24.1508 20.5504 23.9129 21.0292C23.3226 22.2175 21.525 22.7818 20.1333 23.5322C20.0506 23.5768 12.7636 26.4097 12.6358 27.6509C12.4855 29.1092 22.8005 30.0318 23.2842 30.1153C29.6676 31.2173 24.8144 32.858 23.0204 33.4548C20.9737 34.1357 18.7091 34.6471 16.4838 35.1861C14.4796 35.6716 12.3617 36.0614 10.3344 36.5276C9.70631 36.6721 7.61601 36.7678 8.51915 37.0179C9.72151 37.3509 10.4754 36.9004 11.4482 36.8361C15.155 36.5908 19.6852 36.1797 23.6939 36.2637C28.4382 36.363 30.608 37.2309 27.3695 38.9099C25.4892 39.8847 23.1197 40.4253 20.9113 41.1453C20.3245 41.3367 22.0677 41.4765 22.1712 41.4921" stroke="#FF4000" stroke-width="2" stroke-linecap="round"/>
</svg>

<svg width="30" height="43" fill="none" xmlns="http://www.w3.org/2000/svg"><path d="M1.242 1.034c.231.215.35.56.695.646 4.144 1.028 7.718.746 11.758 1.476 2.472.447 5.097.691 7.589 1.827 6.16 2.808.764 5.81-.03 6.286-4.209 2.524-11.05 4.165-17.636 4.837-4.126.42 7.532-1.51 11.457-2.123a80.813 80.813 0 014.213-.574c.64-.067 1.234-.253 2.04-.075.392.087-.26.326-.506.414-3.457 1.246-7.963 1.805-12.06 2.508-2.086.359-8.63 1.073-6.056 1.255 10.194.722-2.467-.907 12.548.475 2.294.21 4.616.157 7.12 1.037 1.066.375 1.777 1.527 1.539 2.006-.59 1.189-2.388 1.753-3.78 2.503-.082.045-7.37 2.878-7.497 4.119-.15 1.458 10.165 2.38 10.648 2.464 6.384 1.102 1.53 2.743-.264 3.34-2.046.68-4.31 1.192-6.536 1.731-2.004.486-4.122.875-6.15 1.342-.628.144-2.718.24-1.815.49 1.203.333 1.956-.118 2.93-.182 3.706-.245 8.236-.656 12.245-.572 4.744.099 6.914.967 3.675 2.646-1.88.975-4.25 1.515-6.458 2.235-.587.192 1.157.331 1.26.347" stroke="#FF4000" stroke-width="2" stroke-linecap="round"/></svg>
